static/images/mobile/copyright/wikipedia-wordmark-wuu.svg

<svg width="120" height="26" viewBox="0 0 120 26" fill="none" xmlns="http://www.w3.org/2000/svg">
<path d="M63.5363 3.17468H73.1735C73.0808 4.87745 72.9286 6.57849 72.6874 8.26703H70.5246L67.1546 6.89794V25.2844H67.5637C68.9295 25.2844 70.2165 24.5921 70.2165 24.246V22.8764H80.7671V25.1476H81.2036C82.2965 25.1476 83.7956 24.5215 83.8565 24.3172V9.37795C84.3795 9.27832 84.7304 9.08048 84.924 8.83402L81.9553 6.58317L80.4318 8.26703H73.3756C74.706 6.84591 75.961 4.95035 76.9876 3.17468H87.292C87.6019 3.17468 87.8535 3.0629 87.9553 2.81011L84.6567 0.290903L82.7749 2.60277H63.3785L63.5363 3.17468ZM31.6175 20.9105C36.0501 19.547 39.6704 17.2848 41.6294 14.2374H47.9364C49.609 16.9892 52.3846 19.4825 55.3602 20.6772C55.5291 19.3629 56.1624 18.2364 57.3166 17.3025L57.3333 17.0514C54.5453 16.8762 50.8523 15.9604 48.6583 14.2374H56.4388C56.7552 14.2374 56.9945 14.1247 57.076 13.8685L54.2153 11.4179L52.5827 13.6928H50.7459V4.08549H55.7548C56.0711 4.08549 56.3101 3.97385 56.3916 3.71766L53.6405 1.40206L52.0898 3.54096H50.7459V1.05369C51.4327 0.951928 51.6671 0.763871 51.7372 0.383601L47.6839 0.0479848V3.54096H40.895V1.05777C41.5533 0.93117 41.7856 0.743001 41.8569 0.383306L37.8604 0.0479848V3.54096H32.6427L32.7982 4.08549H37.8604V13.6928H31.5806L31.7556 14.2374H37.7984C36.43 16.7746 34.1845 19.0773 31.4259 20.5933L31.6175 20.9105ZM8.12024 13.1744L8.41399 13.3957C9.60635 11.9603 10.3621 10.9585 11.1086 9.9269V25.4513H11.5451C13.0077 25.4513 13.8696 24.8272 13.8696 24.6592V23.2896H25.4385C25.7527 23.2896 25.9696 23.2136 26.0488 22.9936L23.2428 20.5514L21.6644 22.7451H19.7535V17.4612H24.6787C25.0154 17.4612 25.2129 17.3838 25.29 17.1638L22.7565 14.8885L21.3155 16.9167H19.7535V11.8517H24.6787C25.0154 11.8517 25.2133 11.7733 25.2904 11.5533L22.7565 9.2517L21.3155 11.2798H19.7535V6.2695H24.9741C25.3108 6.2695 25.5076 6.19401 25.5848 5.97403L22.8861 3.61258L21.3357 5.69759H17.7245C18.9623 4.42838 20.1834 3.1484 21.2006 1.78053C21.7585 1.78053 22.1089 1.62859 22.2385 1.24102L18.2366 0.357465C17.8994 2.14387 17.5002 3.92708 17.0202 5.69759H14.344L13.9008 5.53641C14.6843 4.17252 15.3135 2.93218 15.7933 1.77513C16.3712 1.75202 16.6176 1.6201 16.7468 1.35638L12.6978 0.0926723C11.919 4.1696 10.2259 9.2517 8.12024 13.1744ZM93.8258 20.1788C95.5568 18.8294 97.0969 17.0315 98.4553 15.0824V25.4763H98.9191C100.385 25.4763 101.353 24.8522 101.353 24.6842V11.1742C102.143 12.5005 102.923 14.1123 103.126 15.3759C103.409 15.6652 103.777 15.7989 104.174 15.7989C104.868 15.7989 105.406 15.2148 105.406 14.4203C105.406 13.3239 104.379 11.8318 101.353 10.8363V9.11292L105.267 9.11291C105.559 9.11291 105.833 8.99854 105.95 8.77857L103.373 6.48959L101.96 8.56839H101.353V3.55144C102.217 3.37163 103.078 3.1806 103.931 2.95111C104.327 3.08752 104.658 3.14726 104.927 3.14726C105.198 3.14726 105.394 3.10037 105.554 3.00189L102.225 0.0634215C100.396 1.45802 96.8861 3.28751 93.9667 4.31261L94.0193 4.48353C95.43 4.40006 97.0232 4.22421 98.4553 4.03506V8.56839H94.168L94.3236 9.11292H98.0997C97.2367 12.9825 95.7185 17.0793 93.5678 19.9362L93.8258 20.1788ZM103.82 18.2802L104.096 18.8134L112.876 17.1346V25.3395H113.367C114.492 25.3395 115.774 24.7039 115.774 24.4105V16.5751L119.421 15.8737C119.737 15.8128 119.941 15.6679 120 15.4804L117.428 13.4698L116.18 15.9409L115.774 16.0424V1.54922C116.461 1.44735 116.671 1.24342 116.738 0.877029L112.876 0.490868V16.5669L103.82 18.2802ZM80.7671 15.543V22.3045H70.2165V15.543H80.7671ZM70.2165 14.9985V8.81157H80.7671V14.9985H70.2165ZM33.2615 24.745H55.0707C55.3872 24.745 55.6799 24.6251 55.7387 24.3833L52.3819 21.8069L50.4997 24.1731H45.6933V20.0384H50.802C51.1183 20.0384 51.3569 19.9279 51.4383 19.6717L48.6606 17.4595L47.108 19.4939H45.6933V16.7298C46.3527 16.6538 46.5618 16.4753 46.6286 16.1183L42.6039 15.8087V19.4939H37.2124L37.368 20.0384H42.6039V24.1731H33.084L33.2615 24.745ZM1.95444 18.0237C2.23916 17.9103 2.43732 17.7121 2.53034 17.4285C5.49202 16.262 8.50545 14.9511 9.85074 14.3144L9.80153 14.0006C7.91327 14.1628 5.96716 14.271 4.031 14.3631C6.22176 11.9635 8.51234 8.71468 9.67878 6.53623C10.1172 6.53336 10.4538 6.41385 10.6116 6.12858L7.32194 4.87732C6.60695 7.24639 5.11835 11.0957 3.40596 14.3923C2.45599 14.4361 1.51019 14.4769 0.576589 14.5194L1.95444 18.0237ZM2.51744 10.6061C3.64302 11.2866 4.93629 10.7444 4.91398 9.27746C4.8984 8.25316 4.1542 7.56432 3.1819 7.06665C5.00633 5.33286 6.58388 3.52534 7.73153 1.77778C8.20142 1.78243 8.49714 1.64522 8.62502 1.41344L4.91474 0C4.41309 2.01877 3.67529 4.34622 2.76385 6.86951C1.94369 6.51205 1.02232 6.2639 0.255355 6.0514L0 6.3512C1.68298 8.26814 2.12206 9.14351 2.51744 10.6061ZM47.6839 10.8169V13.6928H40.895V10.8169H47.6839ZM40.895 7.45121H47.6839V10.2724H40.895V7.45121ZM47.6839 4.08549V6.87931H40.895V4.08549H47.6839ZM2.30299 24.2946C2.5868 24.169 2.80341 23.9081 2.86057 23.628C5.98803 21.7189 8.74171 20.0063 10.2307 18.8611L10.129 18.5462C6.5885 19.4904 2.5854 20.425 0.889768 20.723L2.30299 24.2946ZM13.8696 17.4612H17.0747V22.7451H13.8696V17.4612ZM13.8696 16.9167V11.8517H17.0747V16.9167H13.8696ZM13.8696 6.2695H17.0747V11.2798H13.8696V6.2695ZM108.844 7.38091C109.239 7.65789 109.628 7.78173 109.973 7.78173C110.783 7.78173 111.385 7.11499 111.385 6.27069C111.385 5.06681 110.092 3.4988 106.59 2.91035L106.427 3.12989C107.492 4.24311 108.594 5.92793 108.844 7.38091ZM108.404 13.9998C108.79 14.2547 109.167 14.3682 109.503 14.3682C110.332 14.3682 110.944 13.6922 110.944 12.8525C110.944 11.6619 109.645 10.1418 106.14 9.67301L105.971 9.90083C107.052 10.9551 108.099 12.5484 108.404 13.9998Z" fill="black"/>
</svg>

<svg xmlns="http://www.w3.org/2000/svg" width="120" height="26" fill="none"><path fill="#000" d="M63.536 3.175h9.638a58.5 58.5 0 0 1-.487 5.092h-2.162l-3.37-1.37v18.387h.409c1.366 0 2.653-.692 2.653-1.038v-1.37h10.55v2.272h.437c1.093 0 2.592-.627 2.653-.83V9.377c.522-.1.873-.298 1.067-.544l-2.969-2.25-1.523 1.683h-7.056c1.33-1.421 2.585-3.317 3.612-5.092h10.304c.31 0 .561-.112.663-.365L84.657.29l-1.882 2.313H63.378l.158.572ZM31.617 20.91c4.433-1.364 8.053-3.626 10.012-6.674h6.307c1.673 2.752 4.449 5.246 7.424 6.44.17-1.314.802-2.44 1.957-3.375l.016-.25c-2.788-.176-6.48-1.092-8.675-2.815h7.78c.317 0 .556-.112.638-.369l-2.86-2.45-1.633 2.275h-1.837V4.085h5.009c.316 0 .555-.111.637-.367L53.64 1.402l-1.55 2.139h-1.344V1.054c.687-.102.921-.29.991-.67L47.684.048v3.493h-6.789V1.058c.658-.127.89-.315.962-.675L37.86.048v3.493h-5.217l.155.544h5.062v9.608h-6.28l.176.544h6.042c-1.368 2.538-3.614 4.84-6.372 6.356l.192.317ZM8.12 13.173l.294.222a60.998 60.998 0 0 0 2.695-3.47v15.525h.436c1.463 0 2.325-.624 2.325-.792v-1.37h11.569c.314 0 .53-.075.61-.295l-2.806-2.443-1.579 2.194h-1.91v-5.284h4.925c.336 0 .534-.077.611-.297l-2.534-2.276-1.44 2.029h-1.563v-5.065h4.926c.336 0 .534-.079.611-.299l-2.534-2.301-1.44 2.028h-1.563V6.27h5.221c.337 0 .534-.076.61-.296l-2.698-2.361-1.55 2.085h-3.611c1.237-1.27 2.458-2.55 3.476-3.917.558 0 .908-.152 1.037-.54L18.237.357a70.064 70.064 0 0 1-1.217 5.34h-2.676l-.443-.16c.783-1.364 1.412-2.605 1.892-3.762.578-.023.825-.155.954-.419L12.697.093C11.92 4.17 10.227 9.252 8.12 13.174Zm85.706 7.005c1.73-1.35 3.27-3.147 4.63-5.097v10.394h.463c1.466 0 2.434-.624 2.434-.792v-13.51c.79 1.327 1.57 2.938 1.773 4.202.283.29.651.423 1.048.423.694 0 1.232-.584 1.232-1.379 0-1.096-1.027-2.588-4.053-3.584V9.113h3.914c.292 0 .566-.114.683-.334l-2.577-2.29-1.413 2.08h-.607V3.55c.864-.18 1.725-.37 2.578-.6.396.137.727.196.996.196.271 0 .467-.047.627-.145L102.225.063c-1.829 1.395-5.339 3.225-8.258 4.25l.052.17c1.411-.083 3.004-.259 4.436-.448v4.533h-4.287l.156.545H98.1c-.863 3.87-2.381 7.966-4.532 10.823l.258.243Zm9.994-1.899.276.533 8.78-1.678v8.204h.491c1.125 0 2.407-.635 2.407-.928v-7.836l3.647-.701c.316-.061.52-.206.579-.394l-2.572-2.01-1.248 2.47-.406.102V1.55c.687-.102.897-.306.964-.672l-3.862-.386v16.076l-9.056 1.713Zm-23.053-2.737v6.762h-10.55v-6.762h10.55Zm-10.55-.544V8.811h10.55v6.187h-10.55ZM33.26 24.745h21.81c.316 0 .609-.12.668-.362l-3.357-2.576-1.882 2.366h-4.807v-4.135h5.109c.316 0 .555-.11.636-.366l-2.777-2.213-1.553 2.035h-1.415V16.73c.66-.076.869-.255.936-.612l-4.025-.31v3.686h-5.392l.156.544h5.236v4.135h-9.52l.177.572ZM1.954 18.024a.94.94 0 0 0 .576-.596c2.962-1.166 5.975-2.477 7.32-3.114l-.048-.313c-1.889.162-3.835.27-5.771.362 2.19-2.4 4.481-5.648 5.648-7.827.438-.003.775-.122.933-.407l-3.29-1.252c-.715 2.37-2.204 6.219-3.916 9.515-.95.044-1.896.085-2.83.127l1.378 3.505Zm.563-7.418c1.126.68 2.42.138 2.397-1.329-.016-1.024-.76-1.713-1.732-2.21 1.824-1.734 3.402-3.542 4.55-5.29.47.005.765-.132.893-.364L4.915 0c-.502 2.019-1.24 4.346-2.151 6.87-.82-.358-1.742-.606-2.509-.819l-.255.3c1.683 1.917 2.122 2.793 2.517 4.255Zm45.167.21v2.877h-6.789v-2.876h6.789Zm-6.789-3.365h6.789v2.821h-6.789v-2.82Zm6.789-3.366V6.88h-6.789V4.085h6.789ZM2.303 24.295a.973.973 0 0 0 .558-.667c3.127-1.91 5.88-3.622 7.37-4.767l-.102-.315c-3.54.944-7.544 1.879-9.24 2.177l1.414 3.572ZM13.87 17.46h3.205v5.284H13.87v-5.284Zm0-.544v-5.065h3.205v5.065H13.87Zm0-10.648h3.205v5.01H13.87V6.27Zm94.974 1.112c.395.277.784.4 1.129.4.81 0 1.412-.666 1.412-1.51 0-1.204-1.293-2.772-4.795-3.36l-.163.219c1.065 1.113 2.167 2.798 2.417 4.25Zm-.44 6.619c.386.255.763.368 1.099.368.829 0 1.441-.676 1.441-1.516 0-1.19-1.299-2.71-4.804-3.179l-.169.228c1.081 1.054 2.128 2.647 2.433 4.099Z"/></svg>
